X:1
T:Title
%%score { 1 | ( 2 3 ) }
L:1/8
M:3/4
K:Eb
V:1 treble nm="Grand Piano"
V:2 bass 
V:3 bass 
V:1
 z2 z2[Q:1/4=100] EG | B3 B BB | G2 E2 z2 | [DF]3 [DF] [DF][DF] | G4 EG | B3 B BB | G2 E2 z2 | %7
 [DF]3 [DF] [EG][DF] | E4 EE | [EAc]3 [EAc] [EAc][EAc] | [EGB]2 [B,EG]2 [G,E][G,E] | %11
 [B,DF]4 [DB]2 | B4 BB | [Ec]3 [Ee] [Ed][Ec] | B2 G2 E[EF] | [EG]3 [FA] [EG][A,DF] | %16
[M:2/4] [G,E]4 |[M:1/4] z2 |[M:3/4] z2 z2 [DF][DF] | [EG]4 z2 | z2 z2 [EA][EA] | [GB]4 [GB][GB] | %22
 [Ge]3 [GB] [Ac][GB] | [GB]2 G2 E[EF] | [EG]3 [FA] [EG][DF] | E6 |] %26
V:2
 z2 z2 [E,G,][E,B,E] | [E,G,E]3 [E,G,E] [E,G,E][E,G,E] | [E,B,E]2 [E,G,]2 z2 | %3
 [B,,B,]3 [B,,B,] [B,,B,][B,,B,] | [E,B,E]4 [E,G,][E,B,E] | [E,G,E]3 [E,G,E] [E,G,E][E,G,E] | %6
 [E,B,E]2 [E,G,]2 z2 | [B,,B,]3 [B,,B,] [B,,B,][B,,A,] | [E,G,]4 E,E, | A,,3 A,, A,,A,, | %10
 E,2 E,2 E,E, | B,,4 [B,,F,]2 | [E,G,E]4 [E,G,E][E,G,E] | [A,,A,]3 [A,,C] [A,,B,][A,,A,] | %14
 [E,G,E]2 [E,B,E]2 [C,=A,][C,A,] | [B,,B,]3 [B,,B,] [B,,B,]B,, |[M:2/4] E,4 |[M:1/4][K:treble] BB | %18
[M:3/4][K:bass] B6- | B4[K:treble] z2 | c6[K:bass] | [E,E]4 [E,E][E,E] | [E,B,]3 [E,E] [E,E][E,E] | %23
 [E,E]2 [E,B,E]2 [C,=A,][C,A,] | [B,,B,]3 [B,,B,] [B,,B,][B,,A,] | [E,G,]6 |] %26
V:3
 x6 | x6 | x6 | x6 | x6 | x6 | x6 | x6 | x6 | x6 | x6 | x6 | x6 | x6 | x6 | x6 |[M:2/4] x4 | %17
[M:1/4][K:treble] x2 |[M:3/4][K:bass] z2 z2 B,,B,, | E,4[K:treble] cc | z2 z2[K:bass] A,A, | x6 | %22
 x6 | x6 | x6 | x6 |] %26

